assets/images/icons/filled-star-sm.svg

<svg width="12" height="13" viewBox="0 0 12 13" fill="none" xmlns="http://www.w3.org/2000/svg">
<path d="M5.13589 1.48359C5.52162 0.82132 6.47838 0.821321 6.86411 1.48359L8.04119 3.5045C8.18249 3.7471 8.41927 3.91913 8.69366 3.97855L10.9794 4.47352C11.7284 4.63572 12.0241 5.54565 11.5134 6.11715L9.95518 7.86111C9.76812 8.07047 9.67768 8.34882 9.70596 8.62814L9.94155 10.955C10.0188 11.7175 9.24472 12.2798 8.54338 11.9708L6.40325 11.0277C6.14634 10.9145 5.85366 10.9145 5.59675 11.0277L3.45661 11.9708C2.75528 12.2798 1.98125 11.7175 2.05845 10.955L2.29404 8.62814C2.32232 8.34882 2.23188 8.07047 2.04482 7.86111L0.486555 6.11715C-0.0240997 5.54565 0.271554 4.63572 1.02061 4.47352L3.30634 3.97855C3.58074 3.91913 3.81751 3.7471 3.95881 3.5045L5.13589 1.48359Z" fill="#E99A23"/>
</svg>

<svg xmlns="http://www.w3.org/2000/svg" width="12" height="13" fill="none"><path fill="#E99A23" d="M5.136 1.484a1 1 0 0 1 1.728 0l1.177 2.02a1 1 0 0 0 .653.475l2.285.495a1 1 0 0 1 .534 1.643L9.955 7.861a1 1 0 0 0-.249.767l.236 2.327a1 1 0 0 1-1.399 1.016l-2.14-.943a1 1 0 0 0-.806 0l-2.14.943a1 1 0 0 1-1.399-1.016l.236-2.327a1 1 0 0 0-.25-.767L.488 6.117a1 1 0 0 1 .534-1.643l2.285-.495a1 1 0 0 0 .653-.474z"/></svg>
